X:1
T:Heart Bowed Down
T:Heart Bowed Down
T:Michael Balfe (1808-1870) file ID: onmi.airs/241heart_bd
C:Michael Balfe (1808-1870)
C:file ID: onmi.airs/241heart_bd
L:1/8
Q:1/8=180
M:4/4
K:G
V:1 treble 
V:1
"^slow" D2 | B2 B2 B2 B2 | (3BAD A4 d2 | d2 B2 d>c (3AEF | G4 z2 D2 | B2 B2 B2 B2 | (3BAD A4 d2 | %7
 d2 B2 ^c2 BA | A2 ^A2 B2 ^cd | dFBA (3^ABC F>E | D6 z2 || A2 A2 A2 A2 | (3AGB, D4 G2 | %13
 F2 F2 G2 dc | A6 D2 | B2 B2 B2 B2 | (3BAD A4 d2 | d2 B2 d2 cA | _B6 G2 | B3 B c3 A | ^d4 e2 GA | %21
 B3 A c3 B | G4- G4 |] %23

